dist/images/icons/tg.svg

<svg width="17" height="16" viewBox="0 0 17 16" fill="none" xmlns="http://www.w3.org/2000/svg">
<path d="M10.318 14.3001C10.0587 14.3001 9.81927 14.1616 9.70234 13.9406L7.66076 10.0822C7.54864 9.87034 7.5679 9.61684 7.71028 9.42119L11.0058 5.20009L6.53816 8.31359C6.33112 8.44879 6.06285 8.46569 5.83861 8.36039L1.75613 6.43184C1.51125 6.31549 1.36199 6.07304 1.37712 5.81434C1.39156 5.55564 1.56835 5.32944 1.82561 5.24039L14.895 0.690388C15.1461 0.603938 15.4288 0.660488 15.6193 0.840538C15.8092 1.01929 15.8711 1.28709 15.7782 1.52499L10.9632 13.875C10.8683 14.1181 10.6296 14.2851 10.3558 14.2988C10.3434 14.2994 10.3304 14.3001 10.318 14.3001Z" fill="white"/>
</svg>

<svg width="17" height="16" fill="none" xmlns="http://www.w3.org/2000/svg"><path d="M10.318 14.3a.694.694 0 01-.616-.36l-2.041-3.858a.622.622 0 01.05-.66L11.005 5.2 6.538 8.314a.725.725 0 01-.7.046L1.757 6.432a.646.646 0 01-.379-.618.653.653 0 01.449-.574L14.895.69a.719.719 0 01.724.15c.19.18.252.447.16.685l-4.816 12.35a.684.684 0 01-.607.424l-.038.001z" fill="#fff"/></svg>
